X:270
T: Muá ich denn ins Bchlein baden (3-72), S. 203
N: P1045
O: Lothringen
S: PINCK, Louis: Verklingende Weisen, Bd3, Metz 1933]
R: Trennung, Suizid]
M: 3/4
L: 1/8
K: D
AA | A3G=cB | A2G2
=cB | A3GAG=F | E4
AA | D3E=FD | E=FE2
FG | AGA2=FE | D4

